X:28
T:Bourree du Pays Fort
Z:Jack Campin, 2014
F:http://www.campin.me.uk/Music/YoupNannetteD.abc
S:p34, p1000223.jpg
M:3/8
L:1/8
Q:1/4=120
K:D
A|AFA|d2f|e/d/cB|BA\
A|AFA|d2f|e/d/ce|d2:|
A|ddd|c2c|B/B/Bc|BA\
A|ddd|c2c|B/B/Bc|d2:|

